svg/200/rounded/timelapse.svg

<svg xmlns="http://www.w3.org/2000/svg" width="48" height="48" viewBox="0 -960 960 960"><path d="M480-241.538q99.436 0 168.949-69.513T718.462-480q0-84.692-51.654-149.577T533-710.846q-13.231-2.77-23.116 5.461Q500-697.154 500-683.923v211.615L352.538-320.692q-9.769 9.231-8.115 21.846T356.077-279q28.077 18.231 59.35 27.846 31.272 9.616 64.573 9.616ZM480.134-120q-74.442 0-139.794-28.339-65.353-28.34-114.481-77.422-49.127-49.082-77.493-114.373Q120-405.425 120-479.866q0-74.673 28.339-140.41 28.34-65.737 77.422-114.365 49.082-48.627 114.373-76.993Q405.425-840 479.866-840q74.673 0 140.41 28.339 65.737 28.34 114.365 76.922 48.627 48.582 76.993 114.257Q840-554.806 840-480.134q0 74.442-28.339 139.794-28.34 65.353-76.922 114.481-48.582 49.127-114.257 77.493Q554.806-120 480.134-120ZM480-150.769q137.385 0 233.308-96.039Q809.231-342.846 809.231-480q0-137.385-95.923-233.308T480-809.231q-137.154 0-233.192 95.923Q150.769-617.385 150.769-480q0 137.154 96.039 233.192Q342.846-150.769 480-150.769ZM480-480Z"/></svg>

<svg xmlns="http://www.w3.org/2000/svg" width="48" height="48" viewBox="0 -960 960 960"><path d="M480-241.54q99.44 0 168.95-69.51 69.51-69.51 69.51-168.95 0-84.69-51.65-149.58-51.66-64.88-133.81-81.27-13.23-2.77-23.12 5.47-9.88 8.23-9.88 21.46v211.61L352.54-320.69q-9.77 9.23-8.12 21.84 1.66 12.62 11.66 19.85 28.07 18.23 59.35 27.85 31.27 9.61 64.57 9.61Zm.13 121.54q-74.44 0-139.79-28.34t-114.48-77.42q-49.13-49.08-77.49-114.37Q120-405.42 120-479.87q0-74.67 28.34-140.41 28.34-65.73 77.42-114.36 49.08-48.63 114.37-76.99Q405.42-840 479.87-840q74.67 0 140.41 28.34 65.73 28.34 114.36 76.92 48.63 48.58 76.99 114.26Q840-554.81 840-480.13q0 74.44-28.34 139.79t-76.92 114.48q-48.58 49.13-114.26 77.49Q554.81-120 480.13-120Zm-.13-30.77q137.38 0 233.31-96.04 95.92-96.04 95.92-233.19 0-137.38-95.92-233.31-95.93-95.92-233.31-95.92-137.15 0-233.19 95.92-96.04 95.93-96.04 233.31 0 137.15 96.04 233.19 96.04 96.04 233.19 96.04ZM480-480Z"/></svg>
